static/images/user-logos/3dr.svg

<svg viewBox="0 0 600 228" xmlns="http://www.w3.org/2000/svg"><path d="m0 0v55.2l55.2-55.2z"/><path d="m434.4 228h55.2l-55.2-55.2z"/><path d="m525.6 146.4c40.8 0 74.4-32.4 74.4-73.2s-33.6-73.2-74.4-73.2h-92.4v36h92.4c20.4 0 37.2 16.8 37.2 36s-16.8 36-37.2 36h-92.4l112.8 118.8h51.6l-82.8-81.6h10.8zm-423.6-64.8h-10.8l82.8-81.6h-52.8l-82.8 81.6-37.2 36h99.6c20.4 0 37.2 16.8 37.2 36s-16.8 36-37.2 36h-100.8v36h102c40.8 0 74.4-32.4 74.4-73.2s-34.8-70.8-74.4-70.8zm175.2-81.6h-73.2v36h74.4a77.84 77.84 0 0 1 78 78c0 43.2-36 78-79.2 78h-37.2v-91.2h-37.2v127.2h74.4c63.6 0 115.2-51.6 115.2-114s-51.6-114-115.2-114z"/></svg>

<svg data-name="Layer 1" xmlns="http://www.w3.org/2000/svg" viewBox="0 0 600 228"><title>3dr</title><path d="M0 0L0 55.2 55.2 0 0 0z"/><path d="M434.4 228L489.6 228 434.4 172.8 434.4 228z"/><path d="M525.6 146.4c40.8 0 74.4-32.4 74.4-73.2S566.4 0 525.6 0h-92.4v36h92.4c20.4 0 37.2 16.8 37.2 36s-16.8 36-37.2 36h-92.4L546 226.8h51.6l-82.8-81.6h10.8v1.2zM102 81.6H91.2L174 0h-52.8L38.4 81.6l-37.2 36h99.6c20.4 0 37.2 16.8 37.2 36s-16.8 36-37.2 36H0v36h102c40.8 0 74.4-32.4 74.4-73.2S141.6 81.6 102 81.6zM277.2 0H204v36h74.4a77.84 77.84 0 0 1 78 78c0 43.2-36 78-79.2 78H240v-91.2h-37.2V228h74.4c63.6 0 115.2-51.6 115.2-114S340.8 0 277.2 0z"/></svg>
